X:1
T:Ah vous dirai-je, Maman
T:Ah vous dirai-je, Maman
T:var 1
T:Mozart
C:Mozart
%%score { 1 | ( 2 3 ) }
L:1/8
M:2/4
K:C
V:1 treble nm="Piano" snm="Pno."
V:2 bass 
V:3 bass 
V:1
|:!mf! d/c/B/c/ B/c/B/c/ | a/g/^f/g/ =f/g/f/g/ | ^g/a/c'/b/ d'/c'/b/a/ | a/g/e'/d'/ c'/b/a/!>!g/- | %4
 g/f/d'/c'/ b/a/g/!>!f/- | f/e/c'/b/ a/g/f/e/ | da gd |1 c2 z2 :|2 c2 z2 |: %9
!p! a/g/^f/g/ =f/g/a/g/ | g/f/e/f/ e/f/g/f/ | f/e/^d/e/ =d/e/f/e/ | e/d/^c/d/ =c/d/e/d/ | %13
 a/g/^f/g/ e'/c'/a/g/ | g/f/e/f/ d'/b/g/f/ | f/e/^d/e/ c'/g/f/e/ | g>e d2 |!mf! d/c/B/c/ B/c/B/c/ | %18
 a/g/^f/g/ f/g/f/g/ | ^g/a/c'/b/ d'/c'/b/a/ | a/g/e'/d'/ c'/b/a/!>!g/- | g/f/d'/c'/ b/a/g/!>!f/- | %22
 f/e/c'/b/ a/g/f/e/ | da gB | c2 z2 :| %25
V:2
|: C,2 C2 | E2 C2 | F2 C2 | [CE]2 z3/2 ^C/ | D2 z3/2 B,/ | C2 z3/2 A,/ | F,2 G,2 |1 CG, E,G, :|2 %8
 C2 C,2 |: E2 G,2 | D2 G,2 | C2 G,2 | F2 G,2 | [G,E]4 | [G,D]4 | [G,C]2 z3/2 C/ | E>C B,2 | %17
 C,2 C2 | E2 C2 | F2 C2 | E2 z3/2 ^C/ | D2 z3/2 B,/ | C2 z3/2 A,/ | F,2 G,2 | C2 C,2 :| %25
V:3
|: x4 | x4 | x4 | x4 | x4 | x4 | x4 |1 x4 :|2 x4 |: x4 | x4 | x4 | x4 | x4 | x4 | x4 | G,4 | x4 | %18
 x4 | x4 | x4 | x4 | x4 | x4 | x4 :| %25

